X: 107205
Q: "Strathspey."
M: C
L: 1/8
K: Am
a |\
ug |\
va>ug e<a e>d ^c<A | g>e d<g dc B<G |
a>g e<a e>d ^c<A | G/G/G B>d (e<A) A2 |\
a>g e<a e>d ^c<A | g>e d<g d>c B<G |\


